!!!!SEGMENT: pl-wnifc--2303-n_mathieu--la-varsovienne.krn
!!!cenid: 18xx:4005
!!!COM: Mathieu
!!!COM-rismID: pe30002124
!!!CDT:
!!!CNT:
!!!OTL: La Varsovienne
!!!PDT:
!!!AGN:
!!!SMS-siglum: PL-Wnifc
!!!SMS-shelfmark: 2303/n
!!!SMS-shelfwork: W
!!!SMS-variant:
!!!SMS-altvar:
!!!NIFC-rismSourceID: 1001158661
!!!NIFC-islandoraID: nifc:211887
!!!URL-pdf-islandora: https://repozytorium.nifc.pl/islandora/object/nifc%3A211887/datastream/PDF/view
!!!URL-scan: https://polish.musicsources.pl/pl/lokalizacje/galeria/druki-muzyczne/16810 @EN{Scan on Polish Music Sources Website} @PL{Skany w portalu Dziedzictwo Muzyki Polskiej w otwartym dostępie}
!!!ONB-nifc:
!!!AIN: 2 piano 3 vox
!!!key: F
**kern	**dynam	**kern	**dynam	**kern	**text	**kern	**text	**kern	**text
*part5	*part5	*part4	*part4	*part3	*part3	*part2	*part2	*part1	*part1
*staff5	*	*staff4	*	*staff3	*staff3	*staff2	*staff2	*staff1	*staff1
*I"PIANO	*	*I"PIANO	*	*I"[Voce]	*	*I"[Voce]	*	*I"[Voce]	*
*I'pf	*	*I'pf	*	*I'V 3	*	*I'V 2	*	*I'V 1	*
*ICklav	*	*ICklav	*	*ICvox	*	*ICvox	*	*ICvox	*
*Ipiano	*	*Ipiano	*	*Ivox	*	*Ivox	*	*Ivox	*
*>[A,A1,A,A2,B]	*>[A,A1,A,A2,B]	*>[A,A1,A,A2,B]	*>[A,A1,A,A2,B]	*>[A,A1,A,A2,B]	*>[A,A1,A,A2,B]	*>[A,A1,A,A2,B]	*>[A,A1,A,A2,B]	*>[A,A1,A,A2,B]	*>[A,A1,A,A2,B]
*>A	*>A	*>A	*>A	*>A	*>A	*>A	*>A	*>A	*>A
*clefF4	*	*clefG2	*	*clefF4	*	*clefG2	*	*clefG2	*
*k[b-]	*	*k[b-]	*	*k[b-]	*	*k[b-]	*	*k[b-]	*
*F:	*	*F:	*	*F:	*	*F:	*	*F:	*
*M4/4	*	*M4/4	*	*M4/4	*	*M4/4	*	*M4/4	*
*met(c)	*	*met(c)	*	*met(c)	*	*met(c)	*	*met(c)	*
!	!	!	!	!	!	!	!	!LO:TX:a:B:t=Tempo di marcia.	!
4r	.	8cc\L	.	4.ryy	.	4.ryy	.	4r	.
.	.	8dd\	.	.	.	.	.	.	.
8r	.	8b-\J	.	.	.	.	.	8r	.
=1||	=1||	=1||	=1||	=1||	=1||	=1||	=1||	=1||	=1||
*	*	*^	*	*	*	*	*	*	*
!	!	!LO:TX:t=[segno]	!	!	!	!	!	!	!	!
4F\ 4A 4c	.	4.ff/	2a\	.	1ryy	.	1ryy	.	1r	.
4F\ 4A 4c	.	.	.	.	.	.	.	.	.	.
.	.	16ee/LL	.	.	.	.	.	.	.	.
.	.	16dd/JJ	.	.	.	.	.	.	.	.
4F\ 4A 4c	.	8cc\L	2ryy	.	.	.	.	.	.	.
.	.	8dd\	.	.	.	.	.	.	.	.
4F\ 4A 4c	.	8g\	.	.	.	.	.	.	.	.
.	.	8a\J	.	.	.	.	.	.	.	.
*	*	*v	*v	*	*	*	*	*	*	*
=2	=2	=2	=2	=2	=2	=2	=2	=2	=2
4G\ 4B- 4c	.	4.b-\	.	1ryy	.	1ryy	.	1r	.
4G\ 4B- 4c	.	.	.	.	.	.	.	.	.
.	.	24a/LL	.	.	.	.	.	.	.
.	.	24g/	.	.	.	.	.	.	.
.	.	24f/JJ	.	.	.	.	.	.	.
4C\ 4G 4c	.	8e/L	.	.	.	.	.	.	.
.	.	8g/	.	.	.	.	.	.	.
4C\ 4G 4c	.	8c/	.	.	.	.	.	.	.
.	.	8g/J	.	.	.	.	.	.	.
=3	=3	=3	=3	=3	=3	=3	=3	=3	=3
2F\	.	8.f/L	.	1ryy	.	1ryy	.	1r	.
.	.	16e/K	.	.	.	.	.	.	.
.	.	8.f/	.	.	.	.	.	.	.
.	.	16g/Jk	.	.	.	.	.	.	.
4D\	.	8.a/L	.	.	.	.	.	.	.
.	.	16g/K	.	.	.	.	.	.	.
4G\	.	8.a/	.	.	.	.	.	.	.
.	.	16bn/Jk	.	.	.	.	.	.	.
=4	=4	=4	=4	=4	=4	=4	=4	=4	=4
4E\	.	4cc\	.	1ryy	.	1ryy	.	2r	.
4c\	.	4e/ 4g 4cc	.	.	.	.	.	.	.
8C\	.	8e/ 8g 8cc	.	.	.	.	.	8r	.
8r	.	8r	.	.	.	.	.	8cc\	Il
4r	.	4r	.	.	.	.	.	8dd\	s`est
.	.	.	.	.	.	.	.	8cc\	le-
=5	=5	=5	=5	=5	=5	=5	=5	=5	=5
!	!	!LO:TX:t=P:problem: 4x ' nad nutą	!	!	!	!	!	!	!
4F\	.	1c'>/ 1f 1a	.	1ryy	.	1ryy	.	4.ff\	-vé,
4F\	.	.	.	.	.	.	.	.	.
.	.	.	.	.	.	.	.	8ee\	voi-
4F\	.	.	.	.	.	.	.	8dd\	-ci
.	.	.	.	.	.	.	.	8cc\	le
4F\	.	.	.	.	.	.	.	8b-\	jour
.	.	.	.	.	.	.	.	8a/	san-
!!LO:LB:g=original	!	!	!	!	!	!	!	!
=6	=6	=6	=6	=6	=6	=6	=6	=6	=6
!	!	!LO:TX:t=P:problem: 4x ' nad nutą	!	!	!	!	!	!	!
4.B-\	.	1d'>/ 1f 1g	.	1ryy	.	1ryy	.	2g/	-glant:
8A\	.	.	.	.	.	.	.	.	.
8.G\L	.	.	.	.	.	.	.	8r	.
.	.	.	.	.	.	.	.	8g/	qu`il
16F\Jk	.	.	.	.	.	.	.	.	.
8.E\L	.	.	.	.	.	.	.	8g/	soit
.	.	.	.	.	.	.	.	8a/	pour
16D\Jk	.	.	.	.	.	.	.	.	.
=7	=7	=7	=7	=7	=7	=7	=7	=7	=7
!	!	!LO:TX:t=P:problem: 4x ' pod nutą	!	!	!	!	!	!	!
4C/	.	2.e'</ 2.g 2.b-	.	1ryy	.	1ryy	.	4.b-/	nous
4C/	.	.	.	.	.	.	.	.	.
.	.	.	.	.	.	.	.	8a/	le
4C/	.	.	.	.	.	.	.	8g/	jour
.	.	.	.	.	.	.	.	8dd\	de
4E\	.	4e/ 4g 4b-	.	.	.	.	.	8cc\	dé-
.	.	.	.	.	.	.	.	8b-\	-li-
=8	=8	=8	=8	=8	=8	=8	=8	=8	=8
!	!	!LO:TX:t=P:problem: 4x ' nad nutą	!	!	!	!	!	!	!
4F\	.	1c'>/ 1f 1a	.	1ryy	.	1ryy	.	(>4.cc\	-vran-
4F\	.	.	.	.	.	.	.	.	.
.	.	.	.	.	.	.	.	8b-\)	.
4F\	.	.	.	.	.	.	.	8a/	-ce!
.	.	.	.	.	.	.	.	8cc\	dans
4F\	.	.	.	.	.	.	.	8dd\	son
.	.	.	.	.	.	.	.	8ee\	es-
=9	=9	=9	=9	=9	=9	=9	=9	=9	=9
*	*	*^	*	*	*	*	*	*	*
4A\	.	4f/ 4cc	2c\	.	1ryy	.	1ryy	.	4.ff\	-sor
4G\	.	4f/ 4cc	.	.	.	.	.	.	.	.
.	.	.	.	.	.	.	.	.	8ee\	vo-
4F\	.	4dd/	2a\	.	.	.	.	.	8dd\	-yez
.	.	.	.	.	.	.	.	.	8ee\	notre
4F#X\	.	4dd/	.	.	.	.	.	.	8dd\	ai-
.	.	.	.	.	.	.	.	.	8cc\	-gle
*	*	*v	*v	*	*	*	*	*	*	*
=10	=10	=10	=10	=10	=10	=10	=10	=10	=10
4.G\	.	2d/ 2g 2bn	.	1ryy	.	1ryy	.	8bn\	blane,
.	.	.	.	.	.	.	.	8g/	les
.	.	.	.	.	.	.	.	8a/	yeux
8F\	.	.	.	.	.	.	.	8b\	fi-
8.E\L	.	4e/ 4g 4cc	.	.	.	.	.	4.cc\	-xés
16F\K	.	.	.	.	.	.	.	.	.
8.E\	.	4f/ 4g 4dd	.	.	.	.	.	.	.
.	.	.	.	.	.	.	.	8dd\	sur
16D\Jk	.	.	.	.	.	.	.	.	.
!!LO:LB:g=original	!	!	!	!	!	!	!	!
=11	=11	=11	=11	=11	=11	=11	=11	=11	=11
4C/	.	4e/ 4cc 4ee	.	1ryy	.	1ryy	.	8ee\	l`arc-
.	.	.	.	.	.	.	.	8ee\	-en
8BBn/L	.	8d/L 8dd	.	.	.	.	.	8dd\	ciel
8C/J	.	8c/J 8cc	.	.	.	.	.	8cc\	de
4G\	.	4g\ 4gg	.	.	.	.	.	2gg\	Fran-
4GG/ 4G	.	4f/ 4g 4bn	.	.	.	.	.	.	.
=12	=12	=12	=12	=12	=12	=12	=12	=12	=12
4C\	.	4e/ 4g 4cc	.	1ryy	.	1ryy	.	2cc\	-ce!
4C\ 4c	.	4e/ 4g 4cc	.	.	.	.	.	.	.
4C\ 4c	.	4e/ 4g 4cc	.	.	.	.	.	4r	.
!	!	!	!	!	!	!	!	!LO:TX:a:i:t=dolce.	!
4r	.	4r	.	.	.	.	.	8.cc\	au
.	.	.	.	.	.	.	.	16cc\	so-
=13	=13	=13	=13	=13	=13	=13	=13	=13	=13
*	*	*tremolo	*	*	*	*	*	*	*
4F\	.	(8f/L 8a-X	pp	1ryy	.	1ryy	.	2.cc\	-leil
.	.	8c/	.	.	.	.	.	.	.
4F\	.	8f/ 8a-	.	.	.	.	.	.	.
.	.	8c/J)	.	.	.	.	.	.	.
4F\	.	(8f/L 8a-	.	.	.	.	.	.	.
.	.	8c/	.	.	.	.	.	.	.
4F\	.	8f/ 8a-	.	.	.	.	.	8.a-X/	de
.	.	8c/J)	.	.	.	.	.	.	.
.	.	.	.	.	.	.	.	16b-\	juil-
=14	=14	=14	=14	=14	=14	=14	=14	=14	=14
4F\	.	(8f/L 8a-X	.	1ryy	.	1ryy	.	2.cc\	-let
.	.	8c/	.	.	.	.	.	.	.
4F\	.	8f/ 8a-	.	.	.	.	.	.	.
.	.	8c/J)	.	.	.	.	.	.	.
4F\	.	(8f/L 8a-	.	.	.	.	.	.	.
.	.	8c/	.	.	.	.	.	.	.
4F\	.	8f/ 8a-	.	.	.	.	.	8.cc\	dont
.	.	8c/J)	.	.	.	.	.	.	.
.	.	.	.	.	.	.	.	16cc\	l`é-
=15	=15	=15	=15	=15	=15	=15	=15	=15	=15
4F\	.	(8f/L 8cc	.	1ryy	.	1ryy	.	(4dd-X\	-clat
.	.	8d-X/	.	.	.	.	.	.	.
4F\	.	8f/ 8cc	.	.	.	.	.	2ff\)	:
.	.	8d-X/J)	.	.	.	.	.	.	.
4F\	.	(8f/L 8b-	.	.	.	.	.	.	.
.	.	8d-X/	.	.	.	.	.	.	.
4F\	.	8f/ 8b-	.	.	.	.	.	8.ee-X\	fut
.	.	8d-X/J)	.	.	.	.	.	.	.
.	.	.	.	.	.	.	.	16dd-\	si
=16	=16	=16	=16	=16	=16	=16	=16	=16	=16
4F\	.	4f/ 4a-X	.	1ryy	.	1ryy	.	4cc\	bean,
8FF/	.	8c/ 8f 8a-	.	.	.	.	.	8r	.
8r	.	8r	.	.	.	.	.	8cc\	il
4F\	.	4r	.	.	.	.	.	8cc\	a
.	.	.	.	.	.	.	.	8cc\	re-
4r	.	4a-X\ 4cc	.	.	.	.	.	8dd-X\	-pris
.	.	.	.	.	.	.	.	8cc\	son
=17	=17	=17	=17	=17	=17	=17	=17	=17	=17
4G`\	.	4r	.	1ryy	.	1ryy	.	4.b-\	vol,
4r	.	4a-X`\ 4b-	.	.	.	.	.	.	.
.	.	.	.	.	.	.	.	8b-\	il
4En`\	.	4r	.	.	.	.	.	8b-\	fend
.	.	.	.	.	.	.	.	8b-\	les
4r	.	4g`\ 4b-	.	.	.	.	.	8cc\	airs,
.	.	.	.	.	.	.	.	8b-\	il
!!LO:LB:g=original	!	!	!	!	!	!	!	!
=18	=18	=18	=18	=18	=18	=18	=18	=18	=18
4F\	.	4r	.	1ryy	.	1ryy	.	2a-X/	cri-
4r	.	4c/ 4g 4a-X	.	.	.	.	.	.	.
4AA-X/	.	4r	.	.	.	.	.	4a-/	-e:
4r	.	4c/ 4f 4a-	.	.	.	.	.	8a-/	pour
.	.	.	.	.	.	.	.	8a-/	ma
=19	=19	=19	=19	=19	=19	=19	=19	=19	=19
*	*	*^	*	*	*	*	*	*	*
4BB-/	.	4r	2ryy	.	1ryy	.	1ryy	.	(4g/	no-
4r	.	4d-X/ 4f 4a-X	.	.	.	.	.	.	2a-X/)	.
4BBn/	.	4a-/	2dn\ 2f	.	.	.	.	.	.	.
4BB/	.	4g/	.	.	.	.	.	.	8g/	-ble
.	.	.	.	.	.	.	.	.	8f/	pa-
=20	=20	=20	=20	=20	=20	=20	=20	=20	=20	=20
*	*	*	*^	*	*	*	*	*	*	*
4C/	.	4f/	2g/	2c\	.	1ryy	.	1ryy	.	4f/	-tri-
4C/	.	4e/	.	.	.	.	.	.	.	4e/	-e,
4C/	.	4e/ 4g	2ryy	4c\	.	.	.	.	.	4r	.
4r	.	4r	.	4ryy	.	.	.	.	.	8.g/	li-
.	.	.	.	.	.	.	.	.	.	16g/	-ber-
*	*	*v	*v	*v	*	*	*	*	*	*	*
=21	=21	=21	=21	=21	=21	=21	=21	=21	=21
!LO:TX:a::t=Sostenuto.	!	!	!	!	!	!	!	!	!
2F\	.	2c/ 2a-X	.	1ryy	.	1ryy	.	2.a-X/	-te,
2AA-X/	.	2f/ 2cc	.	.	.	.	.	.	.
.	.	.	.	.	.	.	.	8.cc\	ton
.	.	.	.	.	.	.	.	16cc\	so-
=22	=22	=22	=22	=22	=22	=22	=22	=22	=22
*	*	*^	*	*	*	*	*	*	*
2BB-/	.	2.dd-X/	1f	.	1ryy	.	1ryy	.	2.dd-X\	-leil,
2C/	.	.	.	.	.	.	.	.	.	.
.	.	4cc/	.	.	.	.	.	.	8cc\	ou
.	.	.	.	.	.	.	.	.	8cc\	la
*	*	*v	*v	*	*	*	*	*	*	*
=23	=23	=23	=23	=23	=23	=23	=23	=23	=23
!LO:TX:b::t=Rallent.	!	!	!	!	!	!	!	!	!
4D-X\	.	2f/ 2bn	.	1ryy	.	1ryy	.	4bn\	nuit
4D-\	.	.	.	.	.	.	.	2ff;\	du
4D-\	.	2f/ 2g 2b	.	.	.	.	.	.	.
4D-\	.	.	.	.	.	.	.	4b\	tom-
=24	=24	=24	=24	=24	=24	=24	=24	=24	=24
2C;/	.	2e;/ 2g 2cc	.	1ryy	.	1ryy	.	2cc;\	-beau!...
2r	.	2r	.	.	.	.	.	4r	.
!	!	!	!	!	!	!	!	!LO:TX:a::t=Fieramente	!
.	.	.	.	.	.	.	.	8.ddn\	Po-
.	.	.	.	.	.	.	.	16cc\	-lo-
!!LO:LB:g=original	!	!	!	!	!	!	!	!
=25!|:	=25!|:	=25!|:	=25!|:	=25!|:	=25!|:	=25!|:	=25!|:	=25!|:	=25!|:
!	!	!	!	!LO:TX:a:t=Choeur.	!	!LO:TX:a:t=Choeur.	!	!LO:TX:a:t=Choeur.	!
4F\	.	4c/ 4f 4a	.	2F\	-nais,	2a/	-nais,	2cc\	-nais,
4F\	.	4c/ 4f 4a	.	.	.	.	.	.	.
4F\	.	4d/ 4f 4b-	.	8.F\	à	8.b-\	à	8.dd\	à
.	.	.	.	16F\	la	16cc\	la	16cc\	la
!	!	!	!	!	!	!	!	!LO:TX:a:t=La 1ere fois solo.	!
4F\	.	4d/ 4f 4b-	.	8.F\	bai-	8.b-\	bai-	8.dd\	bai-
.	.	.	.	16F\	-on-	16b-\	-on-	16ee\	-on-
=26	=26	=26	=26	=26	=26	=26	=26	=26	=26
4F\	.	4c/ 4f 4a	.	2F\	-net-	2a/	-net-	2ff\	-net-
4F\	.	4c/ 4f 4a	.	.	.	.	.	.	.
4F\	.	4c/ 4f 4a	.	8F\	-te!	8a/	-te!	8cc\	-te!
.	.	.	.	8r	.	8r	.	8r	.
4A\	.	4c/ 4f 4a	.	8.A\	c`est	8.f/	c`est	8.dd\	c`est
.	.	.	.	16A\	le	16f/	le	16cc\	le
=27	=27	=27	=27	=27	=27	=27	=27	=27	=27
4B-\	.	4c/ 4e 4g	.	4B-\	cri	4g/	cri	4e/	cri
4A\	.	4c/ 4f 4a	.	4A\	par	4a/	par	4f/	par
4E\	.	4c/ 4g 4b-	.	4E\	nous	4g/	nous	4b-/	nous
4F\	.	4c/ 4f 4a	.	8.F\	a-	8.f/	a-	8.a/	a-
.	.	.	.	16F\	-dop-	16f/	-dop-	16a/	-dop-
=28	=28	=28	=28	=28	=28	=28	=28	=28	=28
4C/	.	4c/ 4e 4g	.	2C/	-té,	2e/	-té,	2g/	-té,
4c\	.	4e/ 4g 4cc	.	.	.	.	.	.	.
8C/	.	8e/ 8g 8cc	.	4r	.	4r	.	4r	.
8r	.	8r	.	.	.	.	.	.	.
4r	.	4e-X^>/	.	8.c\	qu`en	8.e-X/	qu`en	8.g/	qu`en
.	.	.	.	16c\	ron-	16e-/	ron-	16a/	ron-
=29	=29	=29	=29	=29	=29	=29	=29	=29	=29
4B-\	.	4d/ 4f 4b-	.	2B-\	-lant	2d/	-lant	(4.b-\	-lant
4B-\	.	4d/ 4f 4b-	.	.	.	.	.	.	.
.	.	.	.	.	.	.	.	8cc\)	.
4B-\	.	4d/ 4f 4b-	.	8.B-\	le	8.f/	le	8.dd\	le
.	.	.	.	16B-\	tam-	16f/	tam-	16dd\	tam-
4B-\	.	4d/ 4f 4b-	.	8.B-\	-bour	8.f/	-bour	8.cc\	-bour
.	.	.	.	16B-\	ré-	16dd\	ré-	16b-\	ré-
!!LO:LB:g=original	!	!	!	!	!	!	!	!
=30	=30	=30	=30	=30	=30	=30	=30	=30	=30
4F\	.	4c/ 4f 4a	.	4F\	-pé-	4cc\	-pé-	4b-/	-pé-
4F\	.	4c/ 4f 4a	.	8F\	-te:	8cc\	-te:	8a/	-te:
.	.	.	.	8r	.	8r	.	8r	.
4F\	.	4d/ 4f 4b-	.	8.F\	à	8.b-\	à	8.dd\	à
.	.	.	.	16F\	la	16b-\	la	16cc\	la
4F\	.	4d/ 4f 4b-	.	8.F\	bai-	8.b-\	bai-	8.dd\	bai-
.	.	.	.	16F\	-on-	16b-\	-on-	16ee\	-on-
=31	=31	=31	=31	=31	=31	=31	=31	=31	=31
4F\	.	4c/ 4f 4a	.	4F\	-net-	4a/	-net-	4ff\	-net-
4F\	.	4c/ 4f 4a	.	8F\	-te,	8a/	-te,	8cc\	-te,
.	.	.	.	8r	.	8r	.	8r	.
4F\	.	4d/ 4f 4b-	.	8.F\	à	8.b-\	à	8.dd\	à
.	.	.	.	16F\	la	16b-\	la	16cc\	la
4F\	.	4d/ 4f 4b-	.	8.F\	bai-	8.b-\	bai-	8.dd\	bai-
.	.	.	.	16F\	-on-	16b-\	-on-	16ee\	-on-
=32	=32	=32	=32	=32	=32	=32	=32	=32	=32
4F\	.	4c/ 4f 4a	.	2F\	-net-	2a/	-net-	2ff\	-net-
4F\	.	4c/ 4f 4a	.	.	.	.	.	.	.
8F\	.	8c/ 8f 8a	.	8F\	-te,	8a/	-te,	8cc\	-te,
8r	.	8r	.	8r	.	8r	.	8r	.
!	!LO:DY:b:t=F	!	!LO:DY:b:t=F	!	!	!	!	!	!
4A\	f	4c/ 4f 4a	f	8.A\	vi-	8.f/	vi-	8.cc\	vi-
.	.	.	.	16A\	-ve	16f/	-ve	16a/	-ve
=33	=33	=33	=33	=33	=33	=33	=33	=33	=33
4B-\	.	4d/ 4g	.	4B-\	vi-	4dd\	vi-	4g/	vi-
4BB-/	.	4d/ 4g	.	8.B-\	-ve	8.dd\	-ve	8.b-\	-ve
.	.	.	.	16B-\	la	16b-\	la	16dd\	la
4C/	.	4c/ 4f 4a	.	4c\	li-	4a/	li-	4cc\	li-
4C/	.	4c/ 4f 4a	.	4C/	-ber-	4g/	-ber-	4e\ 4ee	-ber-
!!LO:PB:g=original	!	!	!	!	!	!	!	!	!
=34||	=34||	=34||	=34||	=34||	=34||	=34||	=34||	=34||	=34||
*>A1	*>A1	*>A1	*>A1	*>A1	*>A1	*>A1	*>A1	*>A1	*>A1
!LO:TX:b:t=1ere fois	!	!	!	!	!	!	!	!	!
4F\	.	4c/ 4f 4a	.	2A\	-té	2f/	-té	2f\ 2ff	-té
!	!	!LO:TX:a:t=Choeur	!	!	!	!	!	!	!
4FF/	.	4c/ 4f 4a	.	.	.	.	.	.	.
!	!	!	!	!LO:TX:a:t=Choeur	!	!	!	!LO:TX:a:t=1 ere fois.	!
4F\	.	4c/ 4f 4a	.	4r	.	4r	.	4r	.
4r	.	4r	.	8.F\	Po-	8.b-\	Po-	8.dd\	Po-
.	.	.	.	16F\	-lo	16a/	-lo	16cc\	-lo
=35:|!	=35:|!	=35:|!	=35:|!	=35:|!	=35:|!	=35:|!	=35:|!	=35:|!	=35:|!
*>A2	*>A2	*>A2	*>A1	*>A2	*>A2	*>A2	*>A2	*>A2	*>A2
4F\	.	8c/L 8f 8a	.	2F\	té	2f/	té	2ff\	té
.	.	8f/	.	.	.	.	.	.	.
!LO:TX:b:t=2e fois	!	!	!	!	!	!	!	!	!
4r	.	8g/	.	.	.	.	.	.	.
.	.	8a/J	.	.	.	.	.	.	.
!	!	!	!	!	!	!	!	!LO:TX:a:t=2.e fois.	!
2r	.	8b-\L	.	2r	.	2r	.	2r	.
.	.	8cc\	.	.	.	.	.	.	.
.	.	8dd\	.	.	.	.	.	.	.
.	.	8ee\J	.	.	.	.	.	.	.
=36||	=36||	=36||	=36||	=36||	=36||	=36||	=36||	=36||	=36||
*>B	*>B	*>B	*>B	*>B	*>B	*>B	*>B	*>B	*>B
!	!	!LO:TX:t=[segno]	!	!LO:TX:t=[segno]	!	!LO:TX:t=[segno]	!	!	!
2F\ 2A	.	8.ff\L	.	1r	.	1r	.	1r	.
!	!	!LO:TX:a:t=An dernier Couplet	!	!	!	!	!	!	!
.	.	16ee\K	.	.	.	.	.	.	.
.	.	8.ff\	.	.	.	.	.	.	.
.	.	16ee\Jk	.	.	.	.	.	.	.
2D\ 2A	.	8.dd\L	.	.	.	.	.	.	.
.	.	16cc#X\K	.	.	.	.	.	.	.
.	.	8.dd\	.	.	.	.	.	.	.
.	.	16ccn\Jk	.	.	.	.	.	.	.
=37	=37	=37	=37	=37	=37	=37	=37	=37	=37
2BB-\ 2B-	.	8.b-\L	.	1r	.	1r	.	1r	.
.	.	16g\K	.	.	.	.	.	.	.
.	.	8.dd\	.	.	.	.	.	.	.
.	.	16cc\Jk	.	.	.	.	.	.	.
4C\ 4G 4B-	.	8.cc\L	.	.	.	.	.	.	.
.	.	16b-\K	.	.	.	.	.	.	.
4C\ 4G 4B-	.	8.g\	.	.	.	.	.	.	.
.	.	16a\Jk	.	.	.	.	.	.	.
=38	=38	=38	=38	=38	=38	=38	=38	=38	=38
4F\ 4A	.	4f/	.	1r	.	1r	.	1r	.
4FF/ 4F	.	4a\ 4ff	.	.	.	.	.	.	.
8FF/ 8F	.	8a\ 8ff	.	.	.	.	.	.	.
8r	.	8r	.	.	.	.	.	.	.
4r	.	4r	.	.	.	.	.	.	.
==	==	==	==	==	==	==	==	==	==
*-	*-	*-	*-	*-	*-	*-	*-	*-	*-
!!!system-decoration: s1,s2,s3{(s4,s5)}
!!!RDF**kern: > = above
!!!RDF**kern: < = below
!!!ENC: Filip Voros
!!!END: 2022-08-05
!!!ENC: Natalia Wrzos
!!!END: 2022-08-16
